X:1
T:Title
%%score 1 { ( 2 4 ) | ( 3 5 ) }
L:1/8
M:2/4
K:F
V:1 treble nm="Akkordion"
V:2 bass nm="Grand Piano"
V:4 bass 
V:3 bass 
V:5 bass 
V:1
 z2 z[Q:1/4=88] C | AA GG | F C2 C | DF ED | C3 C | DF ED | CF GA | AG FD | G3 A | BB BG | AA AE | %11
 FF GG | A3 A | BG AE |[M:9/16] FG/-G/A-A/B |[M:2/4] A>A GG |[M:3/8] F3 |[M:1/8] C |[M:2/4] CA AA | %19
 A C2 C | DB BB | B3 B | BG AB | cA FG | AB AG |[M:3/8] F3 |] %26
V:2
 z2 z C | z C EC | z[K:treble] C FC | z D ED | z[K:treble] C FC | z D ED | z[K:treble] F [B,G]A | %7
 AG .F2 | .[B,CEG]2 z2 | [GB][GB] [EGB][EG] | .A2 z2 | [DF]F [DG]G | [^CA]4 | [DB][DG] [^CA]E | %14
[M:9/16] [DF][DG]/-[DG]/[^CA]-[CA]/[DB] |[M:2/4] [CA]>A GG |[M:3/8] [F,A,CF]3 |[M:1/8] z | %18
[M:2/4] [Ac][ca] [ca][ca] | .[ca]2 F[Ac] | [Bd][db] [db][db] | [db]4 | [cb][cg] [ca][cb] | %23
 [cc']a [cf][cg] | [ca]b [ca][Bg] |[M:3/8] [Af]3[K:bass] |] %26
V:3
 z4 | F,,2 .[C,B,]2 | z2 .A,2 | z2 .B,2 | z2 .A,2 | z2 .B,2 | z A, z C | z2 G,2 | %8
 z[K:treble] C CF | C,C B,C | z[K:treble] A AE | z D z D | A,,D, A,A | G,,B,, A,,^C, | %14
[M:9/16] D,B,,/-B,,/A,,-A,,/G,, |[M:2/4] z z/ C/ B,B, |[M:3/8] F,,3 |[M:1/8][K:treble] c | %18
[M:2/4] F,C [A,F]C | F,C A,C | B,,[K:treble]D [B,F]D | B,,D B,[K:treble][Dd] | %22
 [C,C][B,,B,] [A,,A,][G,,G,] | z[K:treble] c[K:bass] A,,B,, | z[K:treble] d [B,CE]2 | %25
[M:3/8][K:bass] [F,F]C,F,, |] %26
V:4
 x4 | F,2 z2 | F,,4[K:treble] | B,,4 | F,,4[K:treble] | B,,4 | F,,2[K:treble] z2 | x4 | x4 | x4 | %10
 E4 | x4 | x4 | x4 |[M:9/16] x9/2 |[M:2/4] x4 |[M:3/8] x3 |[M:1/8] x |[M:2/4] x4 | z .[Ac]3 | x4 | %21
 z2 Fb | x4 | x4 | x4 |[M:3/8] z C[K:bass]F, |] %26
V:5
 x4 | x4 | x4 | x4 | x4 | x4 | z2 F,2 | G,,2 z D | C,4[K:treble] | x4 | ^C,4[K:treble] | D,2 B,,2 | %12
 x4 | x4 |[M:9/16] x9/2 |[M:2/4] C,4 |[M:3/8] x3 |[M:1/8][K:treble] x |[M:2/4] x4 | x4 | %20
 x[K:treble] x3 | x3[K:treble] x | x4 | [F,,F,]2[K:treble][K:bass] z2 | C,2[K:treble] z2 | %25
[M:3/8][K:bass] x3 |] %26

